X:1
T:Gnossienne n°1
T:Gnossienne n°1
T:Erik Satie
C:Erik Satie
%%score { 1 | 2 }
L:1/8
Q:1/4=85
M:4/4
K:C
V:1 treble nm="Piano" snm="Pno."
V:2 bass 
V:1
|: z2 eg ^f2 e2 |{/e} ^d4{/e} d4 | z2 eg ^f2 e2 |{/g} a4{/g} a4 | z2 eg ^f2 e2 |{/e} ^d4{/c} B4 | %6
{/A} B2{/A} B6 |{/c} B2{/B} A6- | A8 ::{/c} d4{/c} B4 |{/c} d4{/c} B4 |{/c} B2{/B} A6- | A8 :: %13
 z e^f^g ab^d'b | a2{/b} a6 |{/b} a4{/a} ^g4 |{/f} e4{/e} ^d4 |{/c} B2{/B} A6- | A8 :: %19
{/c} d4{/c} B4 |{/c} d4{/c} B4 |{/c} B2{/B} A6- | A8 :| z2 eg ^f2 e2 |{/e} ^d8 | z2 eg ^f2 e2 | %26
{/g} a8 |{/c} d4{/c} B4 |{/c} d4{/c} B4 |{/c} B2{/B} A6- | A8 |] %31
V:2
|: A,2 [CE]4 [CE]2 | A,2 [CE]4 [CE]2 | A,2 [CE]4 [CE]2 | A,2 [CE]4 [CE]2 | A,2 [CE]4 [CE]2 | %5
 A,2 [CE]4 [CE]2 | E,2 [G,B,]4 [G,B,]2 | A,2 [CE]4 [CE]2 | A,2 [CE]4 [CE]2 :: D,2 [F,A,]4 [F,A,]2 | %10
 D,2 [F,A,]4 [F,A,]2 | A,,2 [E,A,]4 [E,A,]2 | A,,2 [E,A,]4 [E,A,]2 :: A,2 [CE]4 [CE]2 | %14
 A,2 [CE]4 [CE]2 | A,2 [CE]4 [CE]2 | A,2 [CE]4 [CE]2 | A,2 [CE]4 [CE]2 | A,2 [CE]4 [CE]2 :: %19
 D,2 [F,A,]4 [F,A,]2 | D,2 [F,A,]4 [F,A,]2 | A,,2 [E,A,]4 [E,A,]2 | A,,2 [E,A,]4 [E,A,]2 :| %23
 A,,2 [E,A,]4 [E,A,]2 | A,,2 [E,A,]4 [E,A,]2 | A,,2 [E,A,]4 [E,A,]2 | A,,2 [E,A,]4 [E,A,]2 | %27
 D,2 [F,A,]4 [F,A,]2 | D,2 [F,A,]4 [F,A,]2 | A,,2 [E,A,]6- | [E,A,]8 |] %31

